T: Y Cambro-Brython
M: 2/4
L: 1/8
K: Gmaj
~ | BG B :| ~ I suspect you meant to write ~ | BG G :| ~ in keeping with ~ | cA A :| ~ d | Bd ce | dB AG | Gg dB | AA Ad | Bd ce |dB AG | Bd Ad | BG G :|: d | g2 dB | g2 dB | Gg dB |AA Ad | g2 dB | g2 dB | Bd Ad |BG B :|Bd ce | dB A>G | Gg dB | A2- Ad/c/ | Bd c/d/e/c/ | dB AG/A/ | Bd Ad/c/ | BG G :|: ~g2 dB | ~g2 dB | Gg dB | A2- Ad | ga/g/ dB | g/a/g/e/ d>c | B/c/d A/B/c/d/ |BG G :|
